src/img/calc/armred.svg

<svg width="55" height="63" viewBox="0 0 55 63" fill="none" xmlns="http://www.w3.org/2000/svg">
<g clip-path="url(#clip0)">
<path d="M55 35.5526C55 35.5526 49.484 31.4596 40.2108 37.4787C33.8154 41.652 30.6977 42.1335 24.702 43.7386C18.7863 45.4239 11.4317 48.1526 11.4317 48.1526C11.4317 48.1526 17.9869 46.6278 23.5029 45.2634C29.2587 43.8188 36.4535 43.0965 39.6512 40.7692C44.5276 37.3182 47.4055 34.0278 55 35.5526Z" fill="#D77C69"/>
<path d="M4.3968 16.0508C4.3968 16.0508 0.159882 34.0278 -1.33831e-06 45.9056C-0.159885 54.8138 1.35901 57.5425 5.75581 58.4253C10.2326 59.3081 25.3416 58.9871 46.766 51.6036C46.766 51.6036 31.0174 55.6164 20.3052 56.9005C9.59302 58.1845 1.9186 57.7833 1.27907 51.6839C0.239824 42.1336 4.3968 16.0508 4.3968 16.0508Z" fill="#D77C69"/>
<path d="M5.83575 12.0381C12.2311 7.22277 11.6715 6.74124 13.8299 4.25334C15.5887 2.16672 17.3474 -1.20398 19.6657 0.401111C23.343 3.04952 28.3794 4.57436 25.7413 6.25971C25.7413 6.25971 26.5407 5.2164 25.0218 4.3336C23.5029 3.37054 20.7049 1.76544 19.4259 0.88264C18.2267 0.0800919 16.7078 1.76544 15.6686 3.12977C12.391 7.54379 9.3532 9.95143 5.83575 12.0381Z" fill="#D77C69"/>
<path d="M20.7049 2.32715C20.7049 2.32715 23.5029 4.49403 24.6221 5.45708C25.7413 6.42014 25.9811 7.62396 25.1817 8.42651C25.1817 8.42651 25.5015 7.14243 24.6221 6.25963C23.6628 5.29657 20.7049 2.32715 20.7049 2.32715Z" fill="#D77C69"/>
<path d="M19.9855 3.45068C19.9855 3.45068 22.5436 5.85833 23.6628 6.98189C24.6221 7.94495 25.8212 9.30928 23.5029 10.6736C23.5029 10.6736 24.9419 9.30928 23.9826 8.02521C22.8634 6.82138 21.0247 4.97552 19.9855 3.45068Z" fill="#D77C69"/>
<path d="M20.3052 6.50049C20.3052 6.50049 21.3445 7.94507 22.064 8.90813C22.7834 9.87119 23.6628 11.5565 22.3038 12.3591C20.9448 13.1616 19.9855 13.5629 19.4259 13.2419C18.7863 12.9209 18.3866 12.2788 18.3866 12.2788C18.3866 12.2788 19.3459 13.0814 20.3852 12.7604C21.4244 12.5196 22.7035 11.8776 22.5436 10.9145C22.3837 9.87119 20.7049 7.46355 20.3052 6.50049Z" fill="#D77C69"/>
<path d="M18.7064 10.9946C18.7064 10.9946 15.5887 17.0137 9.75291 16.773C9.75291 16.773 8.39389 26.6443 9.75291 34.1883C11.1119 41.8125 12.4709 47.4303 9.3532 49.1959C9.3532 49.1959 11.1919 46.9488 9.27326 39.3246C7.35465 31.7004 7.59448 21.0265 9.3532 15.4889C9.3532 15.5692 14.3096 16.0507 18.7064 10.9946Z" fill="#D77C69"/>
<path d="M43.0087 51.042C43.0087 51.042 52.5218 54.1719 51.3227 63C51.4026 63 56.6788 53.5299 43.0087 51.042Z" fill="#D77C69"/>
</g>
<defs>
<clipPath id="clip0">
<rect width="55" height="63" fill="white"/>
</clipPath>
</defs>
</svg>

<svg width="55" height="63" fill="none" xmlns="http://www.w3.org/2000/svg"><g clip-path="url(#clip0)" fill="#D77C69"><path d="M55 35.553s-5.516-4.093-14.79 1.926c-6.395 4.173-9.512 4.654-15.508 6.26-5.916 1.685-13.27 4.414-13.27 4.414s6.555-1.525 12.07-2.89c5.757-1.444 12.951-2.166 16.15-4.494 4.876-3.45 7.754-6.741 15.348-5.216z"/><path d="M4.397 16.05S.16 34.029 0 45.907c-.16 8.908 1.359 11.636 5.756 12.52 4.477.882 19.586.561 41.01-6.822 0 0-15.749 4.012-26.46 5.297-10.713 1.283-18.387.882-19.027-5.217C.24 42.134 4.397 16.05 4.397 16.05zM5.836 12.038c6.395-4.815 5.835-5.297 7.994-7.785 1.759-2.086 3.517-5.457 5.836-3.852 3.677 2.649 8.713 4.173 6.075 5.859 0 0 .8-1.044-.72-1.926-1.518-.963-4.316-2.569-5.595-3.451-1.2-.803-2.718.882-3.757 2.247-3.278 4.414-6.316 6.821-9.833 8.908z"/><path d="M20.705 2.327s2.798 2.167 3.917 3.13c1.12.963 1.36 2.167.56 2.97 0 0 .32-1.285-.56-2.167l-3.917-3.933zM19.985 3.45s2.559 2.408 3.678 3.532c.96.963 2.158 2.327-.16 3.692 0 0 1.439-1.365.48-2.649-1.12-1.204-2.958-3.05-3.998-4.574zM20.305 6.5s1.04 1.445 1.759 2.408c.72.963 1.599 2.649.24 3.451-1.36.803-2.319 1.204-2.878.883-.64-.321-1.04-.963-1.04-.963s.96.802 2 .481c1.038-.24 2.317-.882 2.158-1.845-.16-1.044-1.84-3.451-2.239-4.415z"/><path d="M18.706 10.995s-3.117 6.019-8.953 5.778c0 0-1.36 9.871 0 17.415 1.359 7.624 2.718 13.242-.4 15.008 0 0 1.839-2.247-.08-9.871-1.918-7.625-1.679-18.299.08-23.836 0 .08 4.957.562 9.353-4.494zM43.009 51.042s9.513 3.13 8.314 11.958c.08 0 5.356-9.47-8.314-11.958z"/></g><defs><clipPath id="clip0"><path fill="#fff" d="M0 0h55v63H0z"/></clipPath></defs></svg>
